X: 1
T: the Girl With the Blue Dress On
R: reel, polka, shottish
B: Kennedy ?; Raven p.146
N: Nottingham Music Database (FTB, via EF)
Z: 1998 John Chambers <jc:trillian.mit.edu>
M: 4/4
L: 1/8
K: G
Bc \
| "G"d2Bd "D7"c2Ac | "G"B2G2 GFGB | "D7"A2F2 FEFG | "(G)"A2G2 "G"GABc \
| "G"d2Bd "D7"c2Ac | "G"B2G2 GFGB | "D7"A2F2 FEFG | "G"A2G2 G2 :|
|: z2 \
| "G"G2Bd g3f | "C"f2e2 e4 | "D7"D2FA f3e | "G"e2d2 "D7"d4 \
| "G(Em)"G2Bd g3f | "C(Am)"f2e2 e3g | "D7"f2a2 e2f2 | "G"g3 :|

